X: 13925
T: Foxhunter, The
R: slip jig
M: 9/8
K: Dmajor
FGF FDFG2 E|FGF FDFE2 D|FGF FDFG2 B|AFD DEFE2 D:|
BcB BAG FGA|B2 EE2F G2 B|ABc dcB ABc|d2 D DEFE2 D:|
fgf fdf g2 e|fgf fdfe2 d|fgf fdfg2 b|afd def e2 d:|
gfe dcB AGA|B2 EE2 FG2 B|ABc dcB ABc|d2 D DEF E2 D:|

